X:1
T: The Lasses of Ballantrae
C:Simon Fraser
R:Reel
Q: 232
K:F
M:4/4
L:1/8
|:d|cF Ac df ef|cF AF GB, B,d|cF Ac df ef|af ce f1/2f1/2f fd|
cF Ac df ef|cF AF GB, B,d|cF Ac df ef|af ce f1/2f1/2f fg|
fc fa ga eg|f1/2g1/2a gf ec ce|fc af gd bg|af ce f1/2f1/2f fg|
fc fa ga eg|fa gf ed cA|Bd gd cF Ac|df eg f1/2f1/2f f:|
